X: 1
T: The Spider's Web
C: Vincent Broderick
R: jig
M: 6/8
L: 1/8
K: Gmaj
|: GBd g2 d | egd BAG | Bcd efg|a2 g fed |
GBd g2 d | egd BAG | Bcd cAF | DEF G3 :|
|: bag gfg | bag gfe | def gab | a2 g fed |
bag bag | gfe dBG | Bcd cAF | DEF G3 :|